src/shared/assets/icons/ic-notification.svg

<svg width="24" height="24" viewBox="0 0 24 24" fill="none" xmlns="http://www.w3.org/2000/svg">
<path d="M13.5035 4.12654C13.5035 4.98709 12.8059 5.68471 11.9454 5.68471C11.0848 5.68471 10.3872 4.98709 10.3872 4.12654C10.3872 3.26598 11.0848 2.56836 11.9454 2.56836C12.8059 2.56836 13.5035 3.26598 13.5035 4.12654Z" fill="#6AABD5"/>
<path d="M11.947 4.12651C15.0692 4.12676 17.613 6.59842 17.7301 9.69198C17.7302 9.69358 17.7315 9.69487 17.7331 9.69487C17.7347 9.69487 17.7361 9.6962 17.7361 9.69785V13.074C17.7361 13.6934 18.454 14.188 18.8015 14.7007L19.8132 16.1949C20.2625 16.8588 19.7867 17.7552 18.9851 17.7554H5.01439C4.21251 17.7554 3.73679 16.8589 4.18626 16.1949L5.197 14.7007C5.52677 14.2139 6.15892 13.7477 6.15892 13.1597V9.69785C6.15892 9.6962 6.16026 9.69487 6.1619 9.69487C6.16351 9.69487 6.16483 9.69358 6.16489 9.69198C6.282 6.59842 8.82484 4.12672 11.947 4.12651Z" fill="#6AABD5"/>
<path d="M14.3511 19.0197C14.3509 20.3518 13.271 21.4318 11.9389 21.4318C10.6901 21.4317 9.66294 20.4822 9.53953 19.2658L9.52684 19.0197H14.3511Z" fill="#6AABD5"/>
<rect x="15" y="4.54297" width="6" height="6" rx="3" fill="#FF8B47"/>
<rect x="15" y="4.54297" width="6" height="6" rx="3" stroke="white"/>
</svg>

<svg xmlns="http://www.w3.org/2000/svg" fill="none" viewBox="0 0 24 24"><path fill="#6aabd5" d="M13.504 4.127a1.558 1.558 0 1 1-3.117 0 1.558 1.558 0 0 1 3.117 0"/><path fill="#6aabd5" d="M11.947 4.127a5.79 5.79 0 0 1 5.783 5.565q0 .003.003.003t.003.003v3.376c0 .62.718 1.114 1.066 1.627l1.011 1.494a1 1 0 0 1-.828 1.56H5.015a1 1 0 0 1-.829-1.56L5.197 14.7c.33-.487.962-.953.962-1.541V9.698q0-.003.003-.003l.003-.003a5.787 5.787 0 0 1 5.782-5.565m2.404 14.893a2.412 2.412 0 0 1-4.811.246l-.013-.246z"/><rect width="6" height="6" x="15" y="4.543" fill="#ff8b47" rx="3"/><rect width="6" height="6" x="15" y="4.543" stroke="#fff" rx="3"/></svg>
